static/img/general/features-icon-1.svg

<svg width="43" height="43" viewBox="0 0 43 43" fill="none" xmlns="http://www.w3.org/2000/svg">
<path d="M40.4844 6.03125H34.1562V2.51562C34.1562 1.95618 33.934 1.41966 33.5384 1.02407C33.1428 0.628487 32.6063 0.40625 32.0469 0.40625H10.9531C10.3937 0.40625 9.85716 0.628487 9.46157 1.02407C9.06599 1.41966 8.84375 1.95618 8.84375 2.51562V6.03125H2.51562C1.95618 6.03125 1.41966 6.25349 1.02407 6.64907C0.628487 7.04466 0.40625 7.58118 0.40625 8.14062V34.8594C0.40625 35.4188 0.628487 35.9553 1.02407 36.3509C1.41966 36.7465 1.95618 36.9688 2.51562 36.9688H8.84375V40.4844C8.84375 41.0438 9.06599 41.5803 9.46157 41.9759C9.85716 42.3715 10.3937 42.5938 10.9531 42.5938H32.0469C32.6063 42.5938 33.1428 42.3715 33.5384 41.9759C33.934 41.5803 34.1562 41.0438 34.1562 40.4844V36.9688H40.4844C41.0438 36.9688 41.5803 36.7465 41.9759 36.3509C42.3715 35.9553 42.5938 35.4188 42.5938 34.8594V8.14062C42.5938 7.58118 42.3715 7.04466 41.9759 6.64907C41.5803 6.25349 41.0438 6.03125 40.4844 6.03125ZM14.4688 1.8125H28.5312V2.51562C28.5312 2.70211 28.4572 2.88095 28.3253 3.01281C28.1934 3.14467 28.0146 3.21875 27.8281 3.21875H15.1719C14.9854 3.21875 14.8066 3.14467 14.6747 3.01281C14.5428 2.88095 14.4688 2.70211 14.4688 2.51562V1.8125ZM10.25 2.51562C10.25 2.32914 10.3241 2.1503 10.4559 2.01844C10.5878 1.88658 10.7666 1.8125 10.9531 1.8125H13.0625V2.51562C13.0625 3.07507 13.2847 3.61159 13.6803 4.00718C14.0759 4.40276 14.6124 4.625 15.1719 4.625H27.8281C28.3876 4.625 28.9241 4.40276 29.3197 4.00718C29.7153 3.61159 29.9375 3.07507 29.9375 2.51562V1.8125H32.0469C32.2334 1.8125 32.4122 1.88658 32.5441 2.01844C32.6759 2.1503 32.75 2.32914 32.75 2.51562V6.03125H10.25V2.51562ZM2.51562 7.4375H40.4844C40.6709 7.4375 40.8497 7.51158 40.9816 7.64344C41.1134 7.7753 41.1875 7.95414 41.1875 8.14062V10.25H1.8125V8.14062C1.8125 7.95414 1.88658 7.7753 2.01844 7.64344C2.1503 7.51158 2.32914 7.4375 2.51562 7.4375ZM32.75 40.4844C32.75 40.6709 32.6759 40.8497 32.5441 40.9816C32.4122 41.1134 32.2334 41.1875 32.0469 41.1875H10.9531C10.7666 41.1875 10.5878 41.1134 10.4559 40.9816C10.3241 40.8497 10.25 40.6709 10.25 40.4844V36.9688H32.75V40.4844ZM40.4844 35.5625H2.51562C2.32914 35.5625 2.1503 35.4884 2.01844 35.3566C1.88658 35.2247 1.8125 35.0459 1.8125 34.8594V11.6562H41.1875V34.8594C41.1875 35.0459 41.1134 35.2247 40.9816 35.3566C40.8497 35.4884 40.6709 35.5625 40.4844 35.5625Z" fill="#E20E17"/>
<path d="M33.4531 13.0625C32.2015 13.0625 30.9781 13.4336 29.9374 14.129C28.8968 14.8243 28.0857 15.8126 27.6067 16.969C27.1277 18.1253 27.0024 19.3976 27.2466 20.6252C27.4908 21.8527 28.0935 22.9803 28.9785 23.8653C29.8635 24.7503 30.991 25.353 32.2186 25.5972C33.4461 25.8413 34.7185 25.716 35.8748 25.237C37.0311 24.7581 38.0194 23.947 38.7148 22.9063C39.4101 21.8657 39.7813 20.6422 39.7813 19.3906C39.7794 17.7129 39.1121 16.1044 37.9257 14.918C36.7394 13.7317 35.1309 13.0644 33.4531 13.0625ZM33.4531 24.3125C32.4797 24.3125 31.5281 24.0238 30.7187 23.483C29.9093 22.9422 29.2784 22.1735 28.9059 21.2741C28.5334 20.3748 28.4359 19.3852 28.6258 18.4304C28.8157 17.4757 29.2845 16.5987 29.9728 15.9103C30.6612 15.222 31.5382 14.7532 32.4929 14.5633C33.4477 14.3734 34.4373 14.4709 35.3366 14.8434C36.236 15.2159 37.0047 15.8468 37.5455 16.6562C38.0863 17.4656 38.375 18.4172 38.375 19.3906C38.3735 20.6955 37.8545 21.9466 36.9318 22.8693C36.0091 23.792 34.758 24.311 33.4531 24.3125Z" fill="#E20E17"/>
<path d="M34.1562 15.1719H32.75V15.875C32.377 15.875 32.0194 16.0232 31.7556 16.2869C31.4919 16.5506 31.3438 16.9083 31.3438 17.2812V18.6875C31.3438 19.0605 31.4919 19.4181 31.7556 19.6819C32.0194 19.9456 32.377 20.0938 32.75 20.0938H34.1562V21.5H31.3438V22.9062H32.75V23.6094H34.1562V22.9062C34.5292 22.9062 34.8869 22.7581 35.1506 22.4944C35.4143 22.2306 35.5625 21.873 35.5625 21.5V20.0938C35.5625 19.7208 35.4143 19.3631 35.1506 19.0994C34.8869 18.8357 34.5292 18.6875 34.1562 18.6875H32.75V17.2812H35.5625V15.875H34.1562V15.1719Z" fill="#E20E17"/>
<path d="M21.5 29.9376H20.7969V21.5001H22.2031C22.3498 21.4999 22.4928 21.4538 22.6119 21.3683C22.7311 21.2828 22.8206 21.1622 22.8678 21.0233C22.915 20.8844 22.9176 20.7342 22.8752 20.5938C22.8328 20.4534 22.7475 20.3297 22.6313 20.2401L13.4907 13.2089C13.3679 13.1146 13.2174 13.0635 13.0625 13.0635C12.9076 13.0635 12.7571 13.1146 12.6343 13.2089L3.49367 20.2401C3.37749 20.3297 3.29223 20.4534 3.24983 20.5938C3.20743 20.7342 3.21001 20.8844 3.25721 21.0233C3.30441 21.1622 3.39387 21.2828 3.51305 21.3683C3.63224 21.4538 3.77519 21.4999 3.92188 21.5001H5.32812V29.9376H4.625C4.25204 29.9376 3.89435 30.0858 3.63063 30.3495C3.36691 30.6132 3.21875 30.9709 3.21875 31.3439V32.7501C3.21875 33.1231 3.36691 33.4808 3.63063 33.7445C3.89435 34.0082 4.25204 34.1564 4.625 34.1564H21.5C21.873 34.1564 22.2306 34.0082 22.4944 33.7445C22.7581 33.4808 22.9062 33.1231 22.9062 32.7501V31.3439C22.9062 30.9709 22.7581 30.6132 22.4944 30.3495C22.2306 30.0858 21.873 29.9376 21.5 29.9376ZM19.3906 29.9376H17.9844V21.5001H19.3906V29.9376ZM16.5781 21.5001V29.9376H9.54688V21.5001H16.5781ZM13.0625 14.6531L20.1359 20.0939H5.98906L13.0625 14.6531ZM6.73438 21.5001H8.14062V29.9376H6.73438V21.5001ZM4.625 32.7501V31.3439H21.5V32.7501H4.625Z" fill="#E20E17"/>
<path d="M3.21875 8.14062H4.625V9.54688H3.21875V8.14062Z" fill="#E20E17"/>
<path d="M6.03125 8.14062H7.4375V9.54688H6.03125V8.14062Z" fill="#E20E17"/>
<path d="M8.84375 8.14062H10.25V9.54688H8.84375V8.14062Z" fill="#E20E17"/>
<path d="M36.9688 27.125H39.7812V28.5312H36.9688V27.125Z" fill="#E20E17"/>
<path d="M27.125 29.9375H32.75V31.3438H27.125V29.9375Z" fill="#E20E17"/>
<path d="M27.125 32.75H39.7812V34.1562H27.125V32.75Z" fill="#E20E17"/>
<path d="M27.125 27.125H35.5625V28.5312H27.125V27.125Z" fill="#E20E17"/>
<path d="M34.1562 29.9375H39.7812V31.3438H34.1562V29.9375Z" fill="#E20E17"/>
</svg>

<svg width="43" height="43" viewBox="0 0 43 43" fill="none" xmlns="http://www.w3.org/2000/svg"><path d="M40.484 6.031h-6.328V2.516a2.11 2.11 0 0 0-2.11-2.11H10.954a2.11 2.11 0 0 0-2.11 2.11V6.03H2.517a2.11 2.11 0 0 0-2.11 2.11v26.718a2.11 2.11 0 0 0 2.11 2.11h6.328v3.515a2.11 2.11 0 0 0 2.11 2.11h21.093a2.11 2.11 0 0 0 2.11-2.11V36.97h6.327a2.11 2.11 0 0 0 2.11-2.11V8.141a2.11 2.11 0 0 0-2.11-2.11zM14.47 1.813h14.06v.703a.703.703 0 0 1-.703.703H15.172a.703.703 0 0 1-.703-.703v-.704zm-4.219.703a.703.703 0 0 1 .703-.704h2.11v.704a2.11 2.11 0 0 0 2.109 2.109h12.656a2.11 2.11 0 0 0 2.11-2.11v-.703h2.109a.703.703 0 0 1 .703.704V6.03h-22.5V2.516zM2.516 7.437h37.968a.703.703 0 0 1 .703.704v2.109H1.813V8.14a.703.703 0 0 1 .703-.703zM32.75 40.484a.703.703 0 0 1-.703.703H10.953a.703.703 0 0 1-.703-.703V36.97h22.5v3.515zm7.734-4.922H2.516a.703.703 0 0 1-.704-.703V11.656h39.376V34.86a.703.703 0 0 1-.704.703z" fill="#E20E17"/><path d="M33.453 13.063a6.328 6.328 0 1 0 6.328 6.328 6.335 6.335 0 0 0-6.328-6.328zm0 11.25a4.922 4.922 0 1 1 0-9.845 4.922 4.922 0 0 1 0 9.845z" fill="#E20E17"/><path d="M34.156 15.172H32.75v.703a1.407 1.407 0 0 0-1.406 1.406v1.407a1.406 1.406 0 0 0 1.406 1.406h1.406V21.5h-2.812v1.406h1.406v.703h1.406v-.703a1.406 1.406 0 0 0 1.407-1.406v-1.406a1.406 1.406 0 0 0-1.407-1.407H32.75v-1.406h2.813v-1.406h-1.407v-.703zM21.5 29.938h-.703V21.5h1.406a.703.703 0 0 0 .428-1.26l-9.14-7.031a.703.703 0 0 0-.857 0l-9.14 7.031a.704.704 0 0 0 .428 1.26h1.406v8.438h-.703a1.406 1.406 0 0 0-1.406 1.406v1.406a1.406 1.406 0 0 0 1.406 1.406H21.5a1.407 1.407 0 0 0 1.406-1.406v-1.406a1.406 1.406 0 0 0-1.406-1.406zm-2.11 0h-1.406V21.5h1.407v8.438zM16.579 21.5v8.438H9.547V21.5h7.031zm-3.515-6.847l7.073 5.44H5.989l7.074-5.44zM6.734 21.5h1.407v8.438H6.734V21.5zM4.625 32.75v-1.406H21.5v1.406H4.625zM3.219 8.14h1.406v1.407H3.219V8.14zm2.812 0h1.407v1.407H6.03V8.14zm2.813 0h1.406v1.407H8.844V8.14zm28.125 18.985h2.812v1.406H36.97v-1.406zm-9.844 2.813h5.625v1.406h-5.625v-1.407zm0 2.812h12.656v1.406H27.125V32.75zm0-5.625h8.438v1.406h-8.438v-1.406zm7.031 2.813h5.625v1.406h-5.625v-1.407z" fill="#E20E17"/></svg>
